svgs/solid/tv-music.svg

<svg xmlns="http://www.w3.org/2000/svg" viewBox="0 0 640 512"><!-- Font Awesome Pro 5.15.3 by @fontawesome - https://fontawesome.com License - https://fontawesome.com/license (Commercial License) --><path d="M512 448H128a32 32 0 0 0 0 64h384a32 32 0 0 0 0-64zM240 320c26.5 0 48-14.33 48-32v-84.84l96-37.52V226a69.89 69.89 0 0 0-16-2c-26.5 0-48 14.33-48 32s21.5 32 48 32 48-14.33 48-32V112a16 16 0 0 0-20.81-15.25l-128 47.25A16 16 0 0 0 256 159.25V258a69.89 69.89 0 0 0-16-2c-26.5 0-48 14.33-48 32s21.5 32 48 32zM592 0H48A48 48 0 0 0 0 48v320a48 48 0 0 0 48 48h544a48 48 0 0 0 48-48V48a48 48 0 0 0-48-48zm-16 352H64V64h512z"/></svg>

<svg xmlns="http://www.w3.org/2000/svg" viewBox="0 0 640 512"><!--! Font Awesome Pro 6.0.0 by @fontawesome - https://fontawesome.com License - https://fontawesome.com/license (Commercial License) Copyright 2022 Fonticons, Inc. --><path d="M240 320C266.5 320 288 305.6 288 288V203.1l96-37.5v60.38C378.8 224.7 373.4 224 368 224C341.5 224 320 238.4 320 256s21.5 32 48 32S416 273.6 416 256V112c0-5.125-2.375-9.875-6.5-12.88S400 95.25 395.3 96.75l-128 47.25C260.5 146.1 256 152.3 256 159.3v98.75C250.8 256.7 245.4 256 240 256C213.5 256 192 270.4 192 288S213.5 320 240 320zM512 448H127.1C110.3 448 96 462.3 96 479.1S110.3 512 127.1 512h384C529.7 512 544 497.7 544 480S529.7 448 512 448zM592 0h-544C21.5 0 0 21.5 0 48v320C0 394.5 21.5 416 48 416h544c26.5 0 48-21.5 48-48v-320C640 21.5 618.5 0 592 0zM576 352H64V64h512V352z"/></svg>
